wp-content/themes/wp-rock/assets/public/images/placeholder.svg

<svg width="82" height="82" viewBox="0 0 82 82" fill="none" xmlns="http://www.w3.org/2000/svg"><mask id="mask0_21_150" style="mask-type:luminance" maskUnits="userSpaceOnUse" x="6" y="6" width="69" height="69"><path fill-rule="evenodd" clip-rule="evenodd" d="M6.83447 6.83398H74.8345V74.834H6.83447V6.83398Z" fill="#ffffff"/></mask><g mask="url(#mask0_21_150)"><path fill-rule="evenodd" clip-rule="evenodd" d="M26.1386 11.9583C17.5252 11.9583 11.9595 17.8589 11.9595 26.9882V54.8409C11.9595 63.9736 17.5252 69.8708 26.1386 69.8708H55.6928C64.3267 69.8708 69.9061 63.9736 69.9061 54.8409V26.9882C69.9061 17.8589 64.3267 11.9583 55.6928 11.9583H26.1386ZM55.6928 74.9958H26.1386C14.5903 74.9958 6.83447 66.8949 6.83447 54.8409V26.9882C6.83447 14.9342 14.5903 6.83331 26.1386 6.83331H55.6928C67.2582 6.83331 75.0311 14.9342 75.0311 26.9882V54.8409C75.0311 66.8949 67.2582 74.9958 55.6928 74.9958V74.9958Z" fill="#61646B"/></g><path fill-rule="evenodd" clip-rule="evenodd" d="M18.0454 58.6995C17.4099 58.6995 16.7778 58.4672 16.2824 57.9957C15.254 57.0253 15.213 55.399 16.1868 54.3774L21.4074 48.8663C24.1715 45.9314 28.8353 45.7879 31.7838 48.5554L35.057 51.8764C35.9693 52.7989 37.4521 52.816 38.3678 51.914C38.7128 51.5074 46.1543 42.4703 46.1543 42.4703C47.5688 40.7552 49.5642 39.696 51.7816 39.4773C54.0024 39.2826 56.1583 39.9283 57.8769 41.3394C58.0238 41.459 58.1571 41.5752 65.6601 49.2797C66.6475 50.2911 66.6304 51.914 65.6157 52.9014C64.6043 53.8957 62.978 53.8649 61.9906 52.8536C61.9906 52.8536 54.9898 45.6683 54.491 45.1832C53.9614 44.7492 53.1107 44.4964 52.2736 44.5784C51.4228 44.6638 50.6575 45.0704 50.1143 45.7298C42.1739 55.3614 42.0783 55.4537 41.9484 55.5801C39.0169 58.4569 34.2848 58.4091 31.4046 55.4707C31.4046 55.4707 28.2271 52.2454 28.1724 52.1805C27.3832 51.4493 25.9755 51.4972 25.1316 52.3889L19.9041 57.9C19.3984 58.433 18.7219 58.6995 18.0454 58.6995V58.6995Z" fill="#61646B"/><path fill-rule="evenodd" clip-rule="evenodd" d="M29.237 27.7734C27.3476 27.7734 25.8101 29.3109 25.8101 31.2038C25.8101 33.0966 27.3476 34.6375 29.2404 34.6375C31.1332 34.6375 32.6741 33.0966 32.6741 31.2038C32.6741 29.3144 31.1332 27.7769 29.237 27.7734M29.2404 39.7625C24.522 39.7625 20.6851 35.9222 20.6851 31.2038C20.6851 26.4854 24.522 22.6484 29.2404 22.6484C33.9622 22.6519 37.7991 26.4922 37.7991 31.2038C37.7991 35.9222 33.9588 39.7625 29.2404 39.7625" fill="#61646B"/></svg>

<svg width="82" height="82" viewBox="0 0 82 82" fill="none" xmlns="http://www.w3.org/2000/svg"><mask id="a" style="mask-type:luminance" maskUnits="userSpaceOnUse" x="6" y="6" width="69" height="69"><path fill-rule="evenodd" clip-rule="evenodd" d="M6.834 6.834h68v68h-68v-68z" fill="#fff"/></mask><g mask="url(#a)"><path fill-rule="evenodd" clip-rule="evenodd" d="M26.139 11.958c-8.614 0-14.18 5.9-14.18 15.03v27.853c0 9.133 5.566 15.03 14.18 15.03h29.554c8.634 0 14.213-5.897 14.213-15.03V26.988c0-9.13-5.58-15.03-14.213-15.03H26.139zm29.554 63.038H26.139c-11.549 0-19.305-8.101-19.305-20.155V26.988c0-12.054 7.756-20.155 19.305-20.155h29.554c11.565 0 19.338 8.101 19.338 20.155v27.853c0 12.054-7.773 20.155-19.338 20.155z" fill="#61646B"/></g><path fill-rule="evenodd" clip-rule="evenodd" d="M18.045 58.7a2.543 2.543 0 01-1.763-.704 2.556 2.556 0 01-.095-3.619l5.22-5.51c2.765-2.936 7.428-3.08 10.377-.312l3.273 3.321c.912.923 2.395.94 3.31.038.346-.407 7.787-9.444 7.787-9.444a8.293 8.293 0 015.628-2.993c2.22-.194 4.376.451 6.095 1.862.147.12.28.236 7.783 7.94a2.56 2.56 0 11-3.67 3.574s-7-7.185-7.499-7.67c-.53-.434-1.38-.687-2.217-.605a3.187 3.187 0 00-2.16 1.152c-7.94 9.631-8.036 9.724-8.166 9.85-2.931 2.877-7.663 2.83-10.543-.11 0 0-3.178-3.225-3.233-3.29-.789-.73-2.197-.683-3.04.209L19.904 57.9c-.506.533-1.182.8-1.859.8zm11.192-30.927a3.432 3.432 0 103.437 3.43 3.44 3.44 0 00-3.437-3.43m.003 11.99c-4.718 0-8.555-3.84-8.555-8.56 0-4.718 3.837-8.555 8.555-8.555 4.722.004 8.56 3.844 8.56 8.556 0 4.718-3.841 8.559-8.56 8.559" fill="#61646B"/></svg>
